public/svg/calendar.svg

<svg width="247" height="247" viewBox="0 0 247 247" fill="none" xmlns="http://www.w3.org/2000/svg">
<g clip-path="url(#clip0_211_5937)">
<path fill-rule="evenodd" clip-rule="evenodd" d="M131.402 130.5L127.91 120.743L123.37 122.368L128.866 137.726C129.315 138.981 130.693 139.633 131.948 139.184L147.308 133.688L145.683 129.147L135.687 132.724L136.459 131.022C139.629 124.434 145.289 119.04 152.712 116.384C167.689 111.024 184.2 118.833 189.56 133.81C194.919 148.788 187.111 165.299 172.134 170.659C157.157 176.018 140.646 168.209 135.287 153.231L134.474 150.96L129.934 152.585L130.746 154.856C137.002 172.339 156.276 181.455 173.759 175.199C191.242 168.943 200.356 149.668 194.1 132.185C187.844 114.702 168.571 105.587 151.088 111.843C142.413 114.947 135.799 121.254 132.1 128.958L131.402 130.5ZM133.413 58.3098L130.76 50.8977L126.22 52.5225L128.872 59.9346L111.699 66.0797L109.047 58.6676L104.506 60.2924L107.159 67.7045L89.9843 73.8502L87.332 66.4381L82.7913 68.0629L85.4437 75.475L68.2711 81.6201L65.6187 74.208L61.0781 75.8328L63.7305 83.2449L46.1656 89.5304C44.9124 89.9788 44.2592 91.3599 44.7077 92.6131L75.1587 177.71C77.1657 183.318 81.3193 187.9 86.7055 190.448C92.0891 192.994 98.2663 193.297 103.875 191.29L139.673 178.48L138.048 173.94L102.25 186.75C97.8456 188.326 92.9952 188.088 88.7675 186.087C84.8833 184.25 81.8134 181.065 80.1198 177.145C85.7402 180.639 92.8427 181.628 99.5574 179.225L129.335 168.569L127.71 164.029L97.9325 174.684C88.7605 177.966 78.664 173.191 75.3819 164.019L57.2177 113.259L151.076 79.0723L149.424 74.5415L55.5929 108.718L50.0607 93.2586L65.3553 87.7855L67.695 94.324L72.2357 92.6992L69.8959 86.1607L87.0685 80.0156L89.4083 86.5541L93.9489 84.9293L91.6091 78.3908L108.784 72.2451L111.123 78.7836L115.664 77.1588L113.324 70.6203L130.497 64.4752L132.836 71.0137L137.377 69.3889L135.037 62.8504L150.332 57.3774L167.982 106.701L172.523 105.076L154.06 53.4823C153.612 52.229 152.231 51.5759 150.977 52.0244L133.413 58.3098ZM154.505 128.551L160.98 146.645L155.846 154.479L159.879 157.121L165.67 148.283C166.085 147.651 166.18 146.862 165.925 146.15L159.046 126.926L154.505 128.551ZM87.6503 153.01L105.099 146.766L103.474 142.225L86.0255 148.469L87.6503 153.01ZM74.9753 124.385L103.834 138.033L105.897 133.673L77.0355 120.026L74.9753 124.385ZM101.619 112.29L107.863 129.739L112.404 128.114L106.16 110.665L101.619 112.29Z" fill="white"/>
</g>
<defs>
<clipPath id="clip0_211_5937">
<rect width="192.903" height="192.903" fill="white" transform="translate(0 64.9922) rotate(-19.6893)"/>
</clipPath>
</defs>
</svg>

<svg xmlns="http://www.w3.org/2000/svg" width="247" height="247" fill="none"><g clip-path="url(#a)"><path fill="#fff" fill-rule="evenodd" d="m131.402 130.5-3.492-9.757-4.54 1.625 5.496 15.358a2.41 2.41 0 0 0 3.082 1.458l15.36-5.496-1.625-4.541-9.996 3.577.772-1.702c3.17-6.588 8.83-11.982 16.253-14.638 14.977-5.36 31.488 2.449 36.848 17.426 5.359 14.978-2.449 31.489-17.426 36.849s-31.488-2.45-36.847-17.428l-.813-2.271-4.54 1.625.812 2.271c6.256 17.483 25.53 26.599 43.013 20.343s26.597-25.531 20.341-43.014-25.529-26.598-43.012-20.342c-8.675 3.104-15.289 9.411-18.988 17.115zm2.011-72.19-2.653-7.412-4.54 1.624 2.652 7.413-17.173 6.145-2.652-7.412-4.541 1.624 2.653 7.412-17.175 6.146-2.652-7.412-4.54 1.625 2.652 7.412L68.27 81.62l-2.652-7.412-4.54 1.625 2.651 7.412-17.564 6.285a2.41 2.41 0 0 0-1.458 3.083l30.45 85.097a22.462 22.462 0 0 0 28.716 13.58l35.799-12.81-1.625-4.54-35.798 12.81a17.63 17.63 0 0 1-13.483-.663 17.63 17.63 0 0 1-8.647-8.942c5.62 3.494 12.723 4.483 19.437 2.08l29.778-10.656-1.625-4.54-29.777 10.655c-9.173 3.282-19.269-1.493-22.551-10.665l-18.164-50.76 93.858-34.187-1.652-4.53-93.831 34.176-5.532-15.46 15.294-5.472 2.34 6.538 4.54-1.625-2.34-6.538 17.174-6.145 2.34 6.538 4.54-1.625-2.34-6.538 17.175-6.146 2.339 6.539 4.541-1.625-2.34-6.539 17.173-6.145 2.339 6.539 4.541-1.625-2.34-6.539 15.295-5.473 17.65 49.324 4.541-1.625-18.463-51.594a2.41 2.41 0 0 0-3.083-1.458zm21.092 70.241 6.475 18.094-5.134 7.834 4.033 2.642 5.791-8.838c.415-.632.51-1.421.255-2.133l-6.879-19.224zM87.65 153.01l17.449-6.244-1.625-4.541-17.449 6.244zm-12.675-28.625 28.859 13.648 2.063-4.36-28.862-13.647zm26.644-12.095 6.244 17.449 4.541-1.625-6.244-17.449z" clip-rule="evenodd"/></g><defs><clipPath id="a"><path fill="#fff" d="M0 64.992 181.625 0l64.992 181.625-181.624 64.993z"/></clipPath></defs></svg>
